epam-assets/icon-sources/36/cv.svg

<svg width="36" height="36" viewBox="0 0 36 36" fill="none" xmlns="http://www.w3.org/2000/svg">
<path fill-rule="evenodd" clip-rule="evenodd" d="M18 33C26.2843 33 33 26.2843 33 18C33 9.71573 26.2843 3 18 3C9.71573 3 3 9.71573 3 18C3 26.2843 9.71573 33 18 33ZM9.78911 25.0994C10.543 25.3665 11.3299 25.5 12.1499 25.5C12.9831 25.5 13.7568 25.3398 14.4709 25.0193C15.1983 24.6988 15.8398 24.2181 16.3952 23.5772L14.6098 21.4139C14.3321 21.7211 13.9948 21.9881 13.5981 22.2151C13.2145 22.4288 12.7715 22.5356 12.2689 22.5356C11.4357 22.5356 10.7612 22.2085 10.2454 21.5542C9.74282 20.8999 9.49153 19.9585 9.49153 18.73C9.49153 18.1424 9.56428 17.615 9.70976 17.1476C9.86846 16.6803 10.0735 16.2864 10.3247 15.9659C10.5893 15.6454 10.8868 15.3984 11.2175 15.2248C11.5613 15.0512 11.925 14.9644 12.3086 14.9644C12.745 14.9644 13.1285 15.0579 13.4592 15.2448C13.8031 15.4184 14.1337 15.6454 14.4511 15.9258L16.2365 13.7226C15.7737 13.2552 15.205 12.8546 14.5305 12.5208C13.856 12.1736 13.0889 12 12.2292 12C11.4092 12 10.6223 12.1536 9.86846 12.4607C9.12783 12.7678 8.46656 13.2151 7.88464 13.8027C7.31594 14.3769 6.85966 15.0912 6.51579 15.9458C6.17193 16.7871 6 17.7552 6 18.8501C6 19.9585 6.16532 20.9332 6.49596 21.7745C6.82659 22.6024 7.26965 23.2967 7.82512 23.8576C8.39382 24.405 9.04848 24.819 9.78911 25.0994ZM16.7557 12.2404L20.5647 25.2596H24.6911L28.5 12.2404H25.0085L23.6991 17.9288C23.5272 18.6231 23.3685 19.3108 23.223 19.9918C23.0908 20.6595 22.9321 21.3472 22.7469 22.0549H22.6676C22.4824 21.3472 22.3237 20.6595 22.1914 19.9918C22.0592 19.3108 21.9005 18.6231 21.7153 17.9288L20.3663 12.2404H16.7557Z" fill="#6C6F80"/>
</svg>

<svg xmlns="http://www.w3.org/2000/svg" width="36" height="36" fill="none" viewBox="0 0 36 36">
  <path fill="#6C6F80" fill-rule="evenodd" d="M18 33c8.284 0 15-6.716 15-15 0-8.284-6.716-15-15-15C9.716 3 3 9.716 3 18c0 8.284 6.716 15 15 15Zm-8.21-7.9c.753.266 1.54.4 2.36.4.833 0 1.607-.16 2.32-.48a5.427 5.427 0 0 0 1.925-1.443l-1.785-2.163a4.083 4.083 0 0 1-1.012.801c-.384.214-.827.32-1.33.32-.832 0-1.507-.326-2.023-.98-.502-.655-.753-1.596-.753-2.825 0-.588.072-1.115.218-1.582a3.92 3.92 0 0 1 .615-1.182c.264-.32.562-.568.893-.741.343-.174.707-.26 1.09-.26.437 0 .82.093 1.151.28.344.173.675.4.992.68l1.785-2.202a6.316 6.316 0 0 0-1.706-1.202c-.674-.347-1.441-.521-2.3-.521-.82 0-1.608.154-2.362.46a6.012 6.012 0 0 0-1.983 1.343c-.57.574-1.025 1.288-1.37 2.143-.343.841-.515 1.81-.515 2.904 0 1.108.165 2.083.496 2.924.33.828.774 1.523 1.33 2.084a5.727 5.727 0 0 0 1.963 1.241Zm6.966-12.86 3.809 13.02h4.126L28.5 12.24h-3.491l-1.31 5.689a65.73 65.73 0 0 0-.476 2.063c-.132.668-.29 1.355-.476 2.063h-.08a35.118 35.118 0 0 1-.476-2.063 30.72 30.72 0 0 0-.476-2.063l-1.349-5.689h-3.61Z" clip-rule="evenodd"/>
</svg>
